X:1
T:Liederkreis, Op.39
T:Intermezzo
T:N°2. Intermezzo
T:Robert Schumann
T:Liederkreis, Op.39
T:Joseph von Eichendorff
T:Creative Commons copyright waiver (CC0 1.0 Universal) 
T:Creative Commons copyright waiver (CC0 1.0 Universal) 
C:Robert Schumann
Z:Joseph von Eichendorff
Z:Creative Commons copyright waiver (CC0 1.0 Universal)
Z:
%%score 1 { ( 2 4 ) | ( 3 5 6 ) }
L:1/8
Q:1/4=40
M:2/4
K:A
V:1 treble nm="Voice"
V:2 treble nm="Piano"
V:4 treble 
V:3 bass 
V:5 bass 
V:6 bass 
V:1
"^Langsam." z2 z!p! e | d3/2 c/ B ^A | c B z2 | B B/ c/ d B |!mp! c2 z z/ c/ | %5
w: Dein|Bild- niss wun- der-|se- lig|hab' ich im Her- zens-|grund, das|
 (B!mp!!<(! A/) G/ F3/2 f/ | e!<)!!f! ^d z2 | z/!mf! ^d/ e/ c/ B3/2 ^D/ | %8
w: sieht _ so frisch und|fröh- lich|mich an zu je- der|
!f! E2 z z/!p![Q:1/4=40] E/ | %9
w: Stund'. Mein|
"^nach"[Q:1/4=40]"^.5" E2[Q:1/4=42]"^.5" F[Q:1/4=43]"^.5" F/"^und"[Q:1/4=44] F/[Q:1/4=41][Q:1/4=42][Q:1/4=43] | %10
w: Herz still in sich|
[Q:1/4=44]"^.5" B[Q:1/4=45]"^.5" B"^nach"[Q:1/4=46]"^.5" z[Q:1/4=47]"^.5" z/[Q:1/4=48] B/[Q:1/4=45][Q:1/4=46][Q:1/4=47] | %11
w: sin- get ein|
"^schneller"[Q:1/4=48]"^.5" B3/2[Q:1/4=50] B/[Q:1/4=50]"^.5" !turn!c3/2[Q:1/4=52] c/[Q:1/4=49][Q:1/4=51] | %12
w: al- tes schö- nes|
"^und"[Q:1/4=52]"^.5" d4[Q:1/4=53][Q:1/4=54][Q:1/4=55][Q:1/4=56] | %13
w: Lied,|
[Q:1/4=56]"^.5" d[Q:1/4=57]"^.5" d3/4[Q:1/4=58]"^.3" d/4"^schneller"[Q:1/4=58]"^.5" f3/2[Q:1/4=60] d/[Q:1/4=57][Q:1/4=58][Q:1/4=59] | %14
w: das in die Luft sich|
 c c z2 | z/ d/ d/ d/ f3/2 d/ |"^ritard." c2 z[Q:1/4=40]"^Im Tempo."!mp! e | d3/2 c/ B ^A | %18
w: schwin- get|und zu dir ei- lig|zieht. Dein|Bild- niss wun- der-|
 c B z2 | B B/ c/ d B |!mf! c2 z z/ A/ |!mf!!<(! d3/2 d/ f3/2!<)!!f! f/ | %22
w: se- lig|hab' ich im Her- zens-|grund, das|sieht so frisch und|
 (f/!>(!G/) G3/2!>)!!mp! G/ A/ d/ |"^ritard."[Q:1/4=30]!mp! !>!c3/2!p! B/ B3/2 A/ | A2 z2 | z4 | %26
w: fröh- * lich mich an zu|je- der, je- der|Stund'.||
 z4[Q:1/4=25] | z4 | z4 | !fermata!z4 |] %30
w: ||||
V:2
 z4!p! | z4 | z2 (Bf-) | f2 ([Be][db]-) | [db][c-c'] [^Ec]2 | c2 (Ff-) | %6
 z/!mf!!<(! (B/b/^^f/ g/^d/e/!<)!!f!^B/ | c/)^F^^F!>(![EG]!>)!!mf![=A,^D^F]/- | %8
 [A,DF]/[G,E][G,E][G,E]!p![G,E]/- |"^nach"!<(! [G,E]/[B,E][B,E][^A,EF]!<)!"^und"!mp![A,EF]/- | %10
 [A,EF]/[B,DF][B,DF]"^nach"[DFB][DFB]/- |"^schneller"!mp!!<(! [DFB]/[D=GB][DGB][EGc][EGc]/- | %12
"^und" [EGc]/[=GAd]!<)!!mf![GAd][FAd][FAd]/- | %13
!mf!!<(! [FAd]/[FBd]!<)!"^schneller"!f![FBd][df]!mp![FBd]/- | %14
!<(! [FBd]/[Bc]!<)!!mf![Bc][Bcg]!mp![Bc]/- |!<(! [Bc]/[FBd]!<)!!mf![FBd][df][FBd]/- | %16
"^ritard." [FBd]/[Gc][Gc][=Gc]"^Im Tempo."[Gc]/ |!p! z4 | z2 (Bf-) | f2 ([Be][db]-) | %20
 [db] [cc']2 A- | A [Ad]2 [Ff]- | [Ff]/[EG]/!f!!>(! [EG]2!>)!!mp! [EA]/[Fd]/ | %23
"^ritard."!p! [Ec]2 z z3/4!p! (e/4 | z2 z (=g | f>^g)=a>^a | c'"^ritard."b- b/=a/!mp!!<(!g/f/!<)! | %27
!mf! e)!mf!!>(! ([Af]2 [=DG]- | [DG]!>)!!mp! [^CA]2) [A,C]- | !fermata![A,C]4 |] %30
V:3
 z/ (.[E,A,CE].[E,A,CE].[E,A,CE].[E,A,CE]/) | A,,/ (.[E,A,CE].[E,A,CE].[E,=G,CE].[E,G,CE]/) | %2
 A,,/ [F,A,B,^D][F,A,B,D][F,A,B,D][F,A,B,D]/ | %3
!p!!<(! A,,/ [^G,B,=DE][G,B,DE][G,B,DE]!<)!!mp![G,B,DE]/ | A,,/ [A,CE][A,CE][A,C][A,C]/- | %5
!mp!!<(! [A,C^E]/[A,CF][A,CG][A,CA]!<)!!mf![A,CA]/- | [A,CA]/[A,B,=F][A,B,^D][G,B,][G,E]/- | %7
 [G,E]/!>![A,E][^A,E][=B,E][B,,B,]/- | [B,,B,]/[E,B,][E,B,][E,B,][E,B,]/- | %9
 [E,B,]/[E,G,][=D,G,][C,F,][C,F,]/- | [C,F,]/[B,,F,][B,,F,]B,[=A,B,]/- | %11
 [A,B,]/[=G,B,][G,B,][E,A,][E,A,]/- | [E,A,]/[D,A,][D,A,]D[CD]/- | %13
 [CD]/[B,D][B,D]!f!!>(![DF]!>)![B,D]/- | [B,D]/[C^E][CE]!f!!>(![EG]!>)![CE]/- | %15
 [CE]/[B,D][B,D]!>(![DF]!>)![B,D]/- | [B,D]/[C^E][CE][A,=E][A,E]/ | %17
 z/ [=G,DE][G,CE][B,CE][^A,CE]/- | [A,CE]/[=A,EF][A,^DF][A,B,DF][A,B,DF]/ | %19
 z/ [^G,=DE][G,DE]!p!!<(![G,DE][G,DE]/ | A,,/ [A,CE]!<)!!mf![A,CE][=G,A,CE]!mf!!<(![G,A,CE]/ | %21
 F,,/ [F,A,D][F,A,D]/ D,,/!<)!!f! [D,A,D-][D,A,D]/- | [D,A,D]/[D,B,]/ [D,B,]2 [C,A,]/[D,A,]/ | %23
 [E,-A,]2 [E,,E,]2 | [A,,,A,,]/[K:treble]!p!!<(! [CE][CE][CE]!<)!!mp![E=G]/ | %25
[K:bass] A,,/[K:treble] [DF][DF][DF][DF]/ | z/ [=A,DE][A,DE][A,-D]A,/- | %27
 A,[K:bass] ([^D,=C]2 [E,=B,]- | [E,-B,] [A,,E,A,]2)!p! [A,,-E,] | !fermata![A,,,A,,]4 |] %30
V:4
 x4 | x4 | x2 B2- | B2 x2 | x2 (^Ec-) | x4 | f x x2 | x4 | x4 | x4 | x4 | x4 | x4 | x4 | x4 | x4 | %16
 x4 | x4 | x2 B2- | B2 x2 | x4 | x4 | x4 | x2 [DEGB]2 | d>cB^A | c B2 x | %26
[I:staff +1] G>A[I:staff -1]B!arpeggio!^B | c x3 | x4 | x4 |] %30
V:5
 x4 | x4 | x4 | x4 | x4 | x4 | x/ x2 ^D/E/ ^B,/ | C2 x2 | x4 | x4 | x4 | x4 | x4 | x4 | x4 | x4 | %16
 x4 | ([A,,,A,,]2 [=G,,,=G,,][F,,,F,,] | [B,,,B,,]4) | [E,,E,]4 | x4 | x4 | x4 | x4 | %24
 x/[K:treble] x7/2 |[K:bass] x2[K:treble] x A | x/ x2 E/ (G/F/ | E)[K:bass] x3 | x4 | x4 |] %30
V:6
 x4 | x4 | x4 | x4 | x4 | x4 | x4 | x4 | x4 | x4 | x4 | x4 | x4 | x4 | x4 | x4 | x4 | x4 | x4 | %19
 x4 | x4 | x4 | x4 | x4 | x/[K:treble] x7/2 |[K:bass] x/[K:treble] x7/2 | x3 ^D | x[K:bass] x3 | %28
 x4 | x4 |] %30

